X:1
T:Per questa vita
T:Per questa vita
T:Claudio Saracini
T:Source : Le terze Musiche per cantar e sonar---Venetia---A.Vincenti---1620. Editor : André Vierendeels (19/01/16).
T:Notes : Original clefs : C1, F4 Figures above the BC are notated in original print The original print was damaged (perhaps during WWII), necessitating an editorial addendum m22 Text by Gian Battista Marino (Lira-parte terza)
T:©
T:©
T:©
C:Claudio Saracini
Z:©
%%score 1 2
L:1/8
Q:1/4=96
M:4/4
K:F
V:1 treble nm="Soprano" snm="S"
V:2 bass nm="BC" snm="BC"
V:1
 z4 d2 dd | d6 c2 | c4 c4 | z2 B2 d2 c2 | B6 A2 | A4 A4 | d2 dd d2 d2 | z B>BB B3 c | A4 G4 | %9
w: Per que- sta|vi- ta|giu- ro,|che la mia|vi- ta|se- i,|per que- sto co- re|e per que- st'oc- chi|mie- i,|
 z2 z _e e2 e2 | d3 c c2 c2 | z2 B2 B3 c | A3 B G2 G2 :: z2 c2 cccc | c2 A2 B2 c2 | d6 e2 | ^c8 | %17
w: di- rai non|ti cre- d'i- o,|tu giu- ri|quel che mi- o.|Giu- ro per que- sti|miei pian- ti do-|len- *|ti,|
 z2 f2 dd d>d | d>d z e ^c3 c | d4 d4 | z dBB B2 B2 | z ccd _e3 e | d3 d c2 c2 | Bc d4 Bc | A4 G4 | %25
w: giu- ro per que- sti|mie- i so- spi- ri'ar-|den- ti,|hor Lil- la, Lil- la,|il mio giu- rar non|fia men- te- te,|che tu sei la mia|vi- ta,|
 z _ecc c2 c2 | z dde f3 B | c3 c B2 B2 | cc c4 Ac | G4 F4 | dd d4 ef | d4 c4 | Bc d4 Bc | A8 | %34
w: hor Lil- la, Lil- la,|il mio giu- rar non|fia men- te- te,|che tu sei la mia|vi- ta,|che tu sei la mia|vi- ta,|che tu sei la mia|vi-|
 G8 :| %35
w: ta.|
V:2
 G,4 G,,2 A,,2 | B,,2 C,2 D,2 E,2 | F,4 F,,4 | G,,6 A,,2 | B,,4 C,4 | D,4 D,,4 | B,,4 G,,4 | %7
 G,,6 C,2 | D,4 G,,4 |"^b" C,8 | G,4 C,4 | G,,6 C,2 | D,4 G,,4 :: F,,8 | F,,4 G,,2 A,,2 | %15
"^#" B,,4 A,,4- | A,,8 | D,8 |"^#" D,2 A,,6 | D,8 |"^b" G,,8 |"^b" C,8 | G,,4 C,4 | G,4 D,4- | %24
 D,4 G,,4 |"^b" C,8 | B,,8 | F,,4 B,,4 | A,,2 G,,F,, C,4- | C,4 F,,4 |"^-natural" G,,8- | %31
 G,,4 C,4 | G,,8 | D,8 | G,,8 :| %35

